src/assets/filled/Frame2.svg

<svg width="24" height="24" viewBox="0 0 24 24"  xmlns="http://www.w3.org/2000/svg">
<path d="M19 8C20.6569 8 22 6.65685 22 5C22 3.34315 20.6569 2 19 2C17.3431 2 16 3.34315 16 5C16 6.65685 17.3431 8 19 8Z" />
<path d="M17.79 9.34025C16.28 8.94025 15.06 7.72025 14.66 6.21025C14.4 5.25025 14.46 4.33025 14.75 3.51025C14.95 2.95025 14.61 2.33025 14.03 2.21025C12.56 1.90025 10.97 1.91025 9.30997 2.36025C5.52997 3.42025 2.63997 6.69025 2.09997 10.5802C1.17997 17.2002 6.78997 22.8102 13.41 21.9002C17.31 21.3602 20.57 18.4702 21.62 14.6802C22.08 13.0302 22.09 11.4402 21.78 9.96025C21.66 9.38025 21.04 9.05025 20.48 9.24025C19.67 9.53025 18.75 9.59025 17.79 9.34025Z" />
</svg>

<?xml version="1.0" encoding="UTF-8"?>
<svg width="24" height="24" viewBox="0 0 24 24" xmlns="http://www.w3.org/2000/svg">
 <path d="m19 8c1.6569 0 3-1.3432 3-3s-1.3431-3-3-3-3 1.3432-3 3 1.3431 3 3 3z"/>
 <path d="m17.79 9.3402c-1.51-0.4-2.73-1.62-3.13-3.13-0.26-0.96-0.2-1.88 0.09-2.7 0.2-0.56-0.14-1.18-0.72-1.3-1.47-0.31-3.06-0.3-4.72 0.15-3.78 1.06-6.67 4.33-7.21 8.22-0.92 6.62 4.69 12.23 11.31 11.32 3.9-0.54 7.16-3.43 8.21-7.22 0.46-1.65 0.47-3.24 0.16-4.72-0.12-0.58-0.74-0.91-1.3-0.72-0.81 0.29-1.73 0.35-2.69 0.1z"/>
</svg>
